assets/landing/frontend_features/dark/dark_light_mode.svg

<svg xmlns="http://www.w3.org/2000/svg" width="326" height="304" fill="none" viewBox="0 0 326 304"><g stroke="#303236" clip-path="url(#a)"><rect width="99" height="63" x="113.5" y="120.5" rx="31.5"/><rect width="123" height="87" x="101.5" y="108.5" rx="43.5"/><rect width="147" height="111" x="89.5" y="96.5" rx="55.5"/><rect width="171" height="135" x="77.5" y="84.5" rx="67.5"/><rect width="195" height="159" x="65.5" y="72.5" rx="79.5"/><rect width="219" height="183" x="53.5" y="60.5" rx="91.5"/><rect width="243" height="207" x="41.5" y="48.5" rx="103.5"/><rect width="267" height="231" x="29.5" y="36.5" rx="115.5"/><rect width="291" height="255" x="17.5" y="24.5" rx="127.5"/><rect width="315" height="279" x="5.5" y="12.5" rx="139.5"/><rect width="339" height="303" x="-6.5" y=".5" rx="151.5"/></g><circle cx="163" cy="152" r="140" fill="url(#b)"/><path fill="url(#c)" d="M0 0h326v312H0z"/><g filter="url(#d)"><rect width="76" height="40" x="125" y="132" fill="#1A1B1D" fill-opacity=".48" rx="20"/><rect width="75" height="39" x="125.5" y="132.5" stroke="#27282B" rx="19.5"/><rect width="32" height="32" x="165" y="136" fill="#6E56CF" rx="16"/><path fill="#D4CAFE" fill-rule="evenodd" d="M180.011 145.362a.5.5 0 0 1 .044.54 5.205 5.205 0 0 0 7.043 7.043.498.498 0 0 1 .722.555 6.917 6.917 0 1 1-8.32-8.32.5.5 0 0 1 .511.182" clip-rule="evenodd"/><g fill="#9A9CAC" fill-rule="evenodd" clip-path="url(#e)" clip-rule="evenodd"><path d="M141.167 152a3.833 3.833 0 1 1 7.666 0 3.833 3.833 0 0 1-7.666 0m3.832-7.333c.368 0 .667.298.667.666v1.334a.667.667 0 0 1-1.334 0v-1.334c0-.368.299-.666.667-.666m-5.137 2.196a.666.666 0 0 1 .943 0l.999.999a.666.666 0 1 1-.942.943l-1-1a.666.666 0 0 1 0-.942m10.275 0c.26.26.26.682 0 .942l-.999 1a.668.668 0 0 1-.943-.943l.999-.999a.666.666 0 0 1 .943 0M137.667 152c0-.368.298-.667.667-.667h1.333a.667.667 0 0 1 0 1.334h-1.333a.667.667 0 0 1-.667-.667m12 0c0-.368.298-.667.667-.667h1.333a.667.667 0 0 1 0 1.334h-1.333a.667.667 0 0 1-.667-.667m-7.862 3.195c.26.261.26.683 0 .943l-1 1a.668.668 0 0 1-.943-.943l1-1a.67.67 0 0 1 .943 0m6.391.001a.665.665 0 0 1 .942 0l1 1a.666.666 0 1 1-.942.943l-1-1a.666.666 0 0 1 0-.943m-3.197 1.471c.368 0 .667.298.667.666v1.334a.667.667 0 0 1-1.334 0v-1.334c0-.368.299-.666.667-.666"/></g></g><defs><radialGradient id="b" cx="0" cy="0" r="1" gradientTransform="matrix(0 140 -140 0 163 152)" gradientUnits="userSpaceOnUse"><stop stop-color="#261958"/><stop offset="1" stop-color="#1A1B1D" stop-opacity="0"/></radialGradient><radialGradient id="c" cx="0" cy="0" r="1" gradientTransform="matrix(215 0 0 124.336 163 170)" gradientUnits="userSpaceOnUse"><stop stop-color="#1A1B1D" stop-opacity="0"/><stop offset="1" stop-color="#1A1B1D"/></radialGradient><clipPath id="a"><path fill="#fff" d="M0 0h326v312H0z"/></clipPath><clipPath id="e"><path fill="#fff" d="M137 144h16v16h-16z"/></clipPath><filter id="d" width="100" height="64" x="113" y="120" color-interpolation-filters="sRGB" filterUnits="userSpaceOnUse"><feFlood flood-opacity="0" result="BackgroundImageFix"/><feGaussianBlur in="BackgroundImageFix" stdDeviation="6"/><feComposite in2="SourceAlpha" operator="in" result="effect1_backgroundBlur_10609_4174"/><feBlend in="SourceGraphic" in2="effect1_backgroundBlur_10609_4174" result="shape"/></filter></defs></svg>

<svg width="326" height="304" viewBox="0 0 326 304" fill="none" xmlns="http://www.w3.org/2000/svg">
<g clip-path="url(#clip0_10609_4174)">
<rect x="113.5" y="120.5" width="99" height="63" rx="31.5" stroke="#303236"/>
<rect x="101.5" y="108.5" width="123" height="87" rx="43.5" stroke="#303236"/>
<rect x="89.5" y="96.5" width="147" height="111" rx="55.5" stroke="#303236"/>
<rect x="77.5" y="84.5" width="171" height="135" rx="67.5" stroke="#303236"/>
<rect x="65.5" y="72.5" width="195" height="159" rx="79.5" stroke="#303236"/>
<rect x="53.5" y="60.5" width="219" height="183" rx="91.5" stroke="#303236"/>
<rect x="41.5" y="48.5" width="243" height="207" rx="103.5" stroke="#303236"/>
<rect x="29.5" y="36.5" width="267" height="231" rx="115.5" stroke="#303236"/>
<rect x="17.5" y="24.5" width="291" height="255" rx="127.5" stroke="#303236"/>
<rect x="5.5" y="12.5" width="315" height="279" rx="139.5" stroke="#303236"/>
<rect x="-6.5" y="0.5" width="339" height="303" rx="151.5" stroke="#303236"/>
</g>
<circle cx="163" cy="152" r="140" fill="url(#paint0_radial_10609_4174)"/>
<rect width="326" height="312" fill="url(#paint1_radial_10609_4174)"/>
<g filter="url(#filter0_b_10609_4174)">
<rect x="125" y="132" width="76" height="40" rx="20" fill="#1A1B1D" fill-opacity="0.48"/>
<rect x="125.5" y="132.5" width="75" height="39" rx="19.5" stroke="#27282B"/>
<rect x="165" y="136" width="32" height="32" rx="16" fill="#6E56CF"/>
<path fill-rule="evenodd" clip-rule="evenodd" d="M180.011 145.362C180.13 145.518 180.148 145.729 180.055 145.902C179.666 146.631 179.445 147.464 179.445 148.35C179.445 151.224 181.775 153.555 184.65 153.555C185.536 153.555 186.369 153.334 187.098 152.945C187.271 152.852 187.482 152.869 187.638 152.989C187.794 153.109 187.865 153.308 187.82 153.5C187.104 156.557 184.36 158.833 181.084 158.833C177.264 158.833 174.167 155.736 174.167 151.915C174.167 148.639 176.443 145.896 179.5 145.18C179.691 145.135 179.891 145.206 180.011 145.362Z" fill="#D4CAFE"/>
<g clip-path="url(#clip1_10609_4174)">
<path fill-rule="evenodd" clip-rule="evenodd" d="M141.167 152C141.167 149.883 142.883 148.167 145 148.167C147.117 148.167 148.834 149.883 148.834 152C148.834 154.117 147.117 155.833 145 155.833C142.883 155.833 141.167 154.117 141.167 152Z" fill="#9A9CAC"/>
<path fill-rule="evenodd" clip-rule="evenodd" d="M144.999 144.667C145.367 144.667 145.666 144.965 145.666 145.333V146.667C145.666 147.035 145.367 147.333 144.999 147.333C144.631 147.333 144.332 147.035 144.332 146.667V145.333C144.332 144.965 144.631 144.667 144.999 144.667ZM139.862 146.863C140.123 146.602 140.545 146.602 140.805 146.863L141.804 147.862C142.065 148.122 142.065 148.544 141.804 148.805C141.544 149.065 141.122 149.065 140.862 148.805L139.862 147.805C139.602 147.545 139.602 147.123 139.862 146.863ZM150.137 146.863C150.397 147.123 150.397 147.545 150.137 147.805L149.138 148.805C148.877 149.065 148.455 149.065 148.195 148.805C147.935 148.544 147.935 148.122 148.195 147.862L149.194 146.863C149.455 146.602 149.877 146.602 150.137 146.863ZM137.667 152C137.667 151.632 137.965 151.333 138.334 151.333H139.667C140.035 151.333 140.334 151.632 140.334 152C140.334 152.368 140.035 152.667 139.667 152.667H138.334C137.965 152.667 137.667 152.368 137.667 152ZM149.667 152C149.667 151.632 149.965 151.333 150.334 151.333H151.667C152.035 151.333 152.334 151.632 152.334 152C152.334 152.368 152.035 152.667 151.667 152.667H150.334C149.965 152.667 149.667 152.368 149.667 152ZM141.805 155.195C142.065 155.456 142.065 155.878 141.805 156.138L140.805 157.138C140.545 157.398 140.123 157.398 139.862 157.138C139.602 156.878 139.602 156.456 139.862 156.195L140.862 155.195C141.123 154.935 141.545 154.935 141.805 155.195ZM148.196 155.196C148.456 154.935 148.878 154.935 149.138 155.196L150.138 156.196C150.399 156.456 150.399 156.878 150.138 157.139C149.878 157.399 149.456 157.399 149.196 157.139L148.196 156.139C147.935 155.878 147.935 155.456 148.196 155.196ZM144.999 156.667C145.367 156.667 145.666 156.965 145.666 157.333V158.667C145.666 159.035 145.367 159.333 144.999 159.333C144.631 159.333 144.332 159.035 144.332 158.667V157.333C144.332 156.965 144.631 156.667 144.999 156.667Z" fill="#9A9CAC"/>
</g>
</g>
<defs>
<filter id="filter0_b_10609_4174" x="113" y="120" width="100" height="64" filterUnits="userSpaceOnUse" color-interpolation-filters="sRGB">
<feFlood flood-opacity="0" result="BackgroundImageFix"/>
<feGaussianBlur in="BackgroundImageFix" stdDeviation="6"/>
<feComposite in2="SourceAlpha" operator="in" result="effect1_backgroundBlur_10609_4174"/>
<feBlend mode="normal" in="SourceGraphic" in2="effect1_backgroundBlur_10609_4174" result="shape"/>
</filter>
<radialGradient id="paint0_radial_10609_4174" cx="0" cy="0" r="1" gradientUnits="userSpaceOnUse" gradientTransform="translate(163 152) rotate(90) scale(140)">
<stop stop-color="#261958"/>
<stop offset="1" stop-color="#1A1B1D" stop-opacity="0"/>
</radialGradient>
<radialGradient id="paint1_radial_10609_4174" cx="0" cy="0" r="1" gradientUnits="userSpaceOnUse" gradientTransform="translate(163 170) scale(215 124.336)">
<stop stop-color="#1A1B1D" stop-opacity="0"/>
<stop offset="1" stop-color="#1A1B1D"/>
</radialGradient>
<clipPath id="clip0_10609_4174">
<rect width="326" height="312" fill="white"/>
</clipPath>
<clipPath id="clip1_10609_4174">
<rect width="16" height="16" fill="white" transform="translate(137 144)"/>
</clipPath>
</defs>
</svg>
